X: 26
T:Grandfather's Polka
M:2/2
L:1/8
Q:160
N:For Border Morris ESMM 200
K:D
A"D"F2A2 "G"B2c2|"D"dcde f2a2|"Em"g2f2 e2d2|"A7"c2B2 A2G2|\
"D"F2A2 "G"B2c2|"D"dcde f2a2|"Em"g2f2 "A7"e2Bc|"D"d2f2 d4:|
P:B
|:"A"e2AA e2AA|g2f2 e2AA|g2f2 e2d2|"A7"c2B2 A2G2|\
"D"F2A2 "G"B2c2|"D"dcde f2a2|"Em"g2f2 "A7"e2Bc|"D"d2f2 d4:|
